X:1
T:Polska efter Gubben Kihlstedt
R:Polska
Z:2007-09-05
S:Knd genom Mats Berglund
O:Vrmland
M:3/4
L:1/8
K:D
(3:2:4A2a2^ga b3/2b/2|(3:2:4a2^g2fg a2|af (3dfa (3geg|fd (3dcd ef|(3:2:4dcA2G2 E3/2G/2|
(3F2D2F2 E3/2C/2|(3:2:4A,2a2^ga b3/2b/2|(3:2:4a2^g2fg a2|af (3dfa (3geg|(3f2d2A2 -A2:|
(3A2A2F2 (3ABA (3:2:4G2G2AG E3/2G/2|(3F2D2F2 E3/2C/2|D3/2E/2 F3/2A/2 (3GBG|
(3:2:4A2A2BA G3/2A/2| (3:2:4F2F2GF E3/2G/2|(3F2D2F2 E3/2C/2|(3DEF D4:|
